logos/discord.svg

<?xml version="1.0" encoding="UTF-8"?>
<svg width="512px" height="100px" viewBox="0 0 512 100" version="1.1" xmlns="http://www.w3.org/2000/svg" xmlns:xlink="http://www.w3.org/1999/xlink" preserveAspectRatio="xMidYMid">
    <g>
        <path d="M82.003081,0 C91.2633721,1.60390319 100.120889,4.42068908 108.404769,8.2965107 C122.889017,29.9266617 130.085793,54.3223748 127.428468,82.4600608 C116.346397,90.7462215 105.596579,95.7733519 95.0277993,99.0630814 C92.4108216,95.4753062 90.0957488,91.6508839 88.0927556,87.6415645 C91.9075296,86.1918592 95.5712634,84.4030589 99.0337857,82.316213 C98.1278953,81.6376723 97.2321795,80.9282569 96.356462,80.198317 C75.5511554,90.0471561 52.6723352,90.0471561 31.6154704,80.198317 C30.7499275,80.9282569 29.8540363,81.6376723 28.9381467,82.316213 C32.3904943,84.3928843 36.044229,86.1816846 39.859003,87.6312145 C37.8560098,91.6508839 35.5309378,95.4649562 32.9239592,99.0529068 C22.3653539,95.7631773 11.6255003,90.7358714 0.54343793,82.4600608 C-1.72128811,58.1878464 2.80815519,33.5660115 19.5168162,8.31703533 C27.8006964,4.43103911 36.6683882,1.60390319 45.9386784,0 C47.0861279,2.0561467 48.4449635,4.82170874 49.3608531,7.02170325 C59.0237427,5.54129868 68.7771511,5.54129868 78.6210784,7.02170325 C79.5371434,4.82170874 80.8658061,2.0561467 82.003081,0 Z M335.935532,31.686517 C342.980566,31.686517 348.829208,33.1977962 353.479703,36.2201792 L353.479703,49.3896225 C351.839487,48.2381383 349.925609,47.3026012 347.741578,46.5830112 C345.557547,45.8634213 343.222652,45.5034509 340.726366,45.5034509 C336.358304,45.5034509 332.946304,46.3156648 330.47984,47.9502672 C328.013376,49.5848696 326.776636,51.7129402 326.776636,54.3550037 C326.776636,56.9456678 327.973028,59.0635638 330.369323,60.7290409 C332.765617,62.3841679 336.237261,63.2169065 340.796535,63.2169065 C343.141956,63.2169065 345.457555,62.8672861 347.741578,62.1785708 C350.01683,61.4795055 351.979826,60.6262423 353.620042,59.6186059 L353.620042,72.3561549 C348.457309,75.5225611 342.468328,77.1057643 335.653099,77.1057643 C329.916728,77.0852396 325.024148,76.0777786 320.987638,74.0628566 C316.952882,72.0477592 313.902256,69.3132472 311.86909,65.8589699 C309.835924,62.4046925 308.809692,58.5186963 308.809692,54.2008058 C308.809692,49.8830907 309.865746,46.0176191 311.979607,42.6147411 C314.093468,39.211863 317.193213,36.538925 321.280596,34.5959268 C325.366225,32.6529287 330.24828,31.686517 335.935532,31.686517 Z M283.018831,31.6766932 C286.96412,31.6766932 290.577858,32.1084121 293.87057,32.9720253 C297.161527,33.8356385 299.878848,34.935548 302.043582,36.2822794 L302.043582,47.5806485 C299.827975,46.2339171 297.291341,45.1750568 294.393334,44.3730175 C291.504098,43.5815037 288.535921,43.1908341 285.474769,43.1908341 C281.055834,43.1908341 278.852507,43.9618233 278.852507,45.4936271 C278.852507,46.2133925 279.194584,46.74791 279.878738,47.1077049 C280.562892,47.4674999 281.820684,47.8376449 283.643341,48.2283145 L290.688375,49.5236466 C295.289751,50.3358605 298.721048,51.7648658 300.975249,53.8003124 C303.231204,55.8359345 304.357427,58.8481429 304.357427,62.8369377 C304.357427,67.2060521 302.496176,70.6706794 298.761396,73.240819 C295.026615,75.8109585 289.732314,77.0959405 282.867966,77.0959405 C278.831456,77.0857659 274.907217,76.5819477 271.102267,75.5744867 C267.297317,74.5670257 263.864266,73.1071457 260.815393,71.1846723 L260.815393,59.2388126 C263.120467,61.058312 266.209687,62.5594167 270.084807,63.7416001 C273.959927,64.913609 277.705233,65.4995258 281.327742,65.4995258 C283.018831,65.4995258 284.297673,65.273404 285.162514,64.8209851 C286.029109,64.3687416 286.462407,63.8238741 286.462407,63.1967327 C286.462407,62.4771427 286.230847,61.880876 285.757202,61.3975824 C285.283557,60.9144642 284.367843,60.5134446 283.010059,60.1741742 L274.554614,58.2311761 C269.712907,57.0798673 266.279856,55.4863141 264.237919,53.4405175 C262.194227,51.4048954 261.176767,48.7319573 261.176767,45.4217032 C261.176767,42.6356166 262.062659,40.2198503 263.855494,38.1533536 C265.63605,36.0870323 268.172683,34.4934791 271.463641,33.3728695 C274.756352,32.2420853 278.599896,31.6766932 283.018831,31.6766932 Z M512,23.8326015 L512,75.6464106 L494.736507,75.6464106 L494.736507,66.2192911 C493.276978,69.766017 491.063125,72.4698297 488.084423,74.3202039 C485.103966,76.1605788 481.420058,77.0857659 477.051997,77.0857659 C473.147055,77.0857659 469.74558,76.1193542 466.835293,74.1763561 C463.92676,72.2333579 461.683085,69.5707699 460.102513,66.1884165 C458.532467,62.8060631 457.736041,58.9818161 457.736041,54.7051503 C457.686922,50.2948112 458.521942,46.3367157 460.242853,42.8310391 C461.954993,39.3253625 464.379355,36.5908505 467.500151,34.6271523 C470.620947,32.6636296 474.183811,31.6766932 478.179974,31.6766932 C486.262068,31.6766932 491.728206,35.2014569 494.588378,42.2413268 L494.736,42.614 L494.736507,23.8326015 L512,23.8326015 Z M385.466546,31.6663432 C391.053806,31.6663432 395.874462,32.6224049 399.910972,34.5448784 C403.947482,36.4673519 407.027931,39.0992407 409.141792,42.4608941 C411.255653,45.8227229 412.311707,49.6778444 412.311707,54.0471342 C412.311707,58.3648493 411.255653,62.2715456 409.141792,65.7770468 C407.027931,69.2827234 403.936957,72.0379354 399.870625,74.0528574 C395.804292,76.0679549 391.002933,77.0754159 385.457775,77.0754159 C379.910862,77.0754159 375.109503,76.0781295 371.053696,74.0632075 C366.987364,72.0482854 363.887619,69.2930734 361.752707,65.7873968 C359.619549,62.2817202 358.542444,58.3751994 358.542444,54.0573088 C358.542444,49.7395937 359.609023,45.8842968 361.752707,42.5021188 C363.89639,39.1197653 366.976838,36.4673519 371.023874,34.5448784 C375.05863,32.6224049 379.88104,31.6663432 385.466546,31.6663432 Z M253.107255,43.4681797 L253.107255,75.8723569 L235.89639,75.8723569 L235.89639,43.4681797 C241.169641,45.7914974 247.712962,45.8942959 253.107255,43.4681797 Z M448.235068,32.6120549 C450.720829,32.6120549 452.855741,33.187797 454.646822,34.3391059 L454.646822,49.8832661 C452.855741,48.6803826 450.540142,48.0841159 447.671957,48.0841159 C443.916125,48.0841159 441.018118,49.2459501 439.004248,51.5692678 C436.981608,53.892761 435.974673,57.5114108 435.974673,62.404868 L435.974673,75.6462352 L418.712935,75.6462352 L418.712935,33.547592 L435.623825,33.547592 L435.623825,46.932807 C436.558835,42.0391744 438.079763,38.4308746 440.172573,36.0970315 C442.256613,33.7737138 444.952882,32.6120549 448.235068,32.6120549 Z M199.445002,25.2717814 C206.069018,25.2717814 211.665049,26.3306416 216.2559,28.4381876 C220.834471,30.5455582 224.267522,33.4858427 226.542773,37.2485157 C228.816271,41.0111887 229.963545,45.3187292 229.963545,50.1711372 C229.963545,54.9207466 228.775923,59.2282871 226.40068,63.0834087 C224.025437,66.9488803 220.411699,70.0023134 215.550695,72.2537072 C210.689691,74.505101 204.669134,75.6358852 197.473234,75.6358852 L171.967086,75.6358852 L171.967086,25.2717814 L199.445002,25.2717814 Z M42.7277144,41.348354 C36.2959626,41.348354 31.2228711,47.2596223 31.2228711,54.445698 C31.2228711,61.6317737 36.4066553,67.5328673 42.7277144,67.5328673 C49.1596416,67.5328673 54.2425569,61.6317737 54.2325578,54.445698 C54.3432504,47.2492722 49.1596416,41.348354 42.7277144,41.348354 Z M85.244218,41.348354 C78.8122908,41.348354 73.7393746,47.2596223 73.7393746,54.445698 C73.7393746,61.6317737 78.9231588,67.5328673 85.244218,67.5328673 C91.6759697,67.5328673 96.7490613,61.6317737 96.7490613,54.445698 C96.859754,47.2492722 91.6759697,41.348354 85.244218,41.348354 Z M385.457775,44.928235 C382.447496,44.928235 380.091549,45.7814982 378.370638,47.4880245 C376.660253,49.1947263 375.804183,51.4769947 375.804183,54.3555299 C375.804183,57.2340651 376.660253,59.5472082 378.370638,61.2947838 C380.082778,63.0425348 382.447496,63.9266726 385.457775,63.9266726 C388.415426,63.9163226 390.752076,63.0425348 392.462462,61.2947838 C394.174602,59.5472082 395.039443,57.2340651 395.039443,54.3555299 C395.039443,51.4769947 394.183373,49.1843762 392.462462,47.4880245 C390.752076,45.7814982 388.415426,44.928235 385.457775,44.928235 Z M485.225009,45.1441822 C482.316476,45.1441822 479.992106,45.9974454 478.250144,47.7039717 C476.508182,49.4106734 475.643341,51.6208425 475.643341,54.3555299 C475.643341,57.0902173 476.508182,59.3210865 478.250144,61.0481374 C479.992106,62.7751884 482.286654,63.6388016 485.154839,63.6388016 C488.063372,63.628627 490.398267,62.7546638 492.16128,61.0070882 C493.922539,59.2593372 494.797906,56.9874188 494.797906,54.2116821 C494.797906,51.528394 493.941836,49.3385741 492.23145,47.6629224 C490.51931,45.9872707 488.173889,45.1441822 485.225009,45.1441822 Z M198.18721,38.0812543 L189.591426,38.0812543 L189.591426,62.8367623 L197.190801,62.8367623 C201.650084,62.8367623 205.083135,61.6956281 207.477675,59.4235342 C209.873969,57.1412658 211.072116,54.0366088 211.072116,50.0992133 C211.072116,46.4495134 210.003783,43.5401036 207.870625,41.3606337 C205.737467,39.1811638 202.506154,38.0812543 198.18721,38.0812543 Z M244.509717,22.2386975 C249.261958,22.2386975 253.116027,25.7734945 253.116027,30.1340131 C253.116027,34.4945317 249.261958,38.0295041 244.509717,38.0295041 C239.755722,38.0295041 235.903407,34.4945317 235.903407,30.1340131 C235.903407,25.7734945 239.755722,22.2386975 244.509717,22.2386975 Z" fill="#5865F2" fill-rule="nonzero"></path>
    </g>
</svg>

<svg preserveAspectRatio="xMidYMid" viewBox="0 0 512 100" xmlns="http://www.w3.org/2000/svg">
  <path fill="#5865F2" d="M82.003 0a104.229 104.229 0 0 1 26.402 8.297c14.484 21.63 21.68 46.025 19.023 74.163-11.082 8.286-21.831 13.313-32.4 16.603a80.176 80.176 0 0 1-6.935-11.421 68.02 68.02 0 0 0 10.94-5.326 65.816 65.816 0 0 1-2.677-2.118c-20.805 9.85-43.684 9.85-64.74 0-.866.73-1.762 1.44-2.678 2.118a68.192 68.192 0 0 0 10.921 5.315 80.53 80.53 0 0 1-6.935 11.422C22.365 95.763 11.626 90.736.544 82.46-1.722 58.188 2.807 33.566 19.516 8.317A103.882 103.882 0 0 1 45.939 0c1.147 2.056 2.506 4.822 3.422 7.022 9.663-1.48 19.416-1.48 29.26 0A77.412 77.412 0 0 1 82.003 0Zm253.933 31.687c7.045 0 12.893 1.51 17.544 4.533v13.17c-1.64-1.152-3.554-2.087-5.738-2.807-2.184-.72-4.52-1.08-7.016-1.08-4.368 0-7.78.813-10.246 2.447-2.467 1.635-3.703 3.763-3.703 6.405 0 2.59 1.196 4.709 3.592 6.374 2.397 1.655 5.868 2.488 10.428 2.488 2.345 0 4.66-.35 6.945-1.038 2.275-.7 4.238-1.553 5.878-2.56v12.737c-5.163 3.167-11.152 4.75-17.967 4.75-5.736-.02-10.629-1.028-14.665-3.043-4.035-2.015-7.086-4.75-9.119-8.204-2.033-3.454-3.06-7.34-3.06-11.658s1.057-8.183 3.17-11.586c2.114-3.403 5.214-6.076 9.302-8.02 4.085-1.942 8.967-2.908 14.655-2.908Zm-52.917-.01c3.945 0 7.559.431 10.852 1.295 3.29.864 6.008 1.964 8.173 3.31v11.299c-2.216-1.347-4.753-2.406-7.65-3.208a33.572 33.572 0 0 0-8.92-1.182c-4.418 0-6.621.77-6.621 2.303 0 .72.342 1.254 1.026 1.614.684.36 1.942.73 3.764 1.12l7.045 1.296c4.602.812 8.033 2.24 10.287 4.276 2.256 2.036 3.382 5.048 3.382 9.037 0 4.37-1.86 7.834-5.596 10.404-3.734 2.57-9.029 3.855-15.893 3.855-4.037-.01-7.96-.514-11.766-1.522-3.805-1.007-7.238-2.467-10.287-4.39V59.24c2.305 1.82 5.395 3.32 9.27 4.503 3.875 1.172 7.62 1.758 11.243 1.758 1.69 0 2.97-.227 3.835-.679.866-.452 1.3-.997 1.3-1.624 0-.72-.232-1.316-.706-1.8-.473-.483-1.39-.884-2.747-1.223l-8.455-1.943c-4.842-1.151-8.275-2.745-10.317-4.79-2.044-2.036-3.061-4.709-3.061-8.02 0-2.785.886-5.201 2.678-7.268 1.781-2.066 4.318-3.66 7.609-4.78 3.292-1.13 7.136-1.696 11.555-1.696ZM512 23.833v51.813h-17.263V66.22c-1.46 3.547-3.674 6.25-6.653 8.101-2.98 1.84-6.664 2.766-11.032 2.766-3.905 0-7.306-.967-10.217-2.91-2.908-1.943-5.152-4.605-6.732-7.988-1.57-3.382-2.367-7.206-2.367-11.483-.05-4.41.786-8.368 2.507-11.874 1.712-3.506 4.136-6.24 7.257-8.204 3.12-1.963 6.684-2.95 10.68-2.95 8.082 0 13.548 3.524 16.408 10.564l.148.373V23.833H512Zm-126.533 7.833c5.587 0 10.407.956 14.444 2.879 4.036 1.922 7.117 4.554 9.23 7.916 2.115 3.362 3.17 7.217 3.17 11.586 0 4.318-1.055 8.225-3.17 11.73-2.113 3.506-5.204 6.26-9.27 8.276-4.067 2.015-8.868 3.022-14.413 3.022-5.547 0-10.348-.997-14.404-3.012-4.067-2.015-7.166-4.77-9.301-8.276-2.133-3.505-3.21-7.412-3.21-11.73 0-4.317 1.066-8.173 3.21-11.555 2.143-3.382 5.224-6.035 9.27-7.957 4.036-1.923 8.858-2.879 14.444-2.879Zm-132.36 11.802v32.404h-17.21V43.468c5.273 2.323 11.816 2.426 17.21 0Zm195.128-10.856c2.486 0 4.62.576 6.412 1.727v15.544c-1.791-1.203-4.107-1.799-6.975-1.799-3.756 0-6.654 1.162-8.668 3.485-2.022 2.324-3.03 5.942-3.03 10.836v13.241h-17.261V33.548h16.91v13.385c.936-4.894 2.457-8.502 4.55-10.836 2.084-2.323 4.78-3.485 8.062-3.485Zm-248.79-7.34c6.624 0 12.22 1.059 16.81 3.166 4.58 2.108 8.013 5.048 10.288 8.81 2.273 3.763 3.42 8.07 3.42 12.923 0 4.75-1.187 9.057-3.562 12.912-2.376 3.866-5.99 6.92-10.85 9.17-4.861 2.252-10.882 3.383-18.078 3.383h-25.506V25.272h27.478ZM42.728 41.348c-6.432 0-11.505 5.912-11.505 13.098 0 7.186 5.184 13.087 11.505 13.087 6.432 0 11.515-5.901 11.505-13.087.11-7.197-5.073-13.098-11.505-13.098Zm42.516 0c-6.432 0-11.505 5.912-11.505 13.098 0 7.186 5.184 13.087 11.505 13.087 6.432 0 11.505-5.901 11.505-13.087.11-7.197-5.073-13.098-11.505-13.098Zm300.214 3.58c-3.01 0-5.366.853-7.087 2.56-1.71 1.707-2.567 3.989-2.567 6.868 0 2.878.856 5.191 2.567 6.939 1.712 1.748 4.076 2.632 7.087 2.632 2.957-.01 5.294-.884 7.004-2.632 1.713-1.748 2.577-4.06 2.577-6.94 0-2.878-.856-5.17-2.577-6.867-1.71-1.707-4.047-2.56-7.004-2.56Zm99.767.216c-2.909 0-5.233.853-6.975 2.56s-2.607 3.917-2.607 6.652c0 2.734.865 4.965 2.607 6.692 1.742 1.727 4.037 2.59 6.905 2.59 2.908-.01 5.243-.883 7.006-2.63 1.762-1.749 2.637-4.02 2.637-6.796 0-2.684-.856-4.873-2.567-6.55-1.712-1.675-4.057-2.518-7.006-2.518Zm-287.038-7.063h-8.596v24.756h7.6c4.46 0 7.892-1.141 10.287-3.413 2.396-2.283 3.594-5.387 3.594-9.325 0-3.65-1.068-6.559-3.201-8.738-2.134-2.18-5.365-3.28-9.684-3.28ZM244.51 22.24c4.752 0 8.606 3.534 8.606 7.895 0 4.36-3.854 7.896-8.606 7.896-4.754 0-8.607-3.535-8.607-7.896 0-4.36 3.853-7.895 8.607-7.895Z"/>
</svg>
